Newaita-dark/.DP/22/skype-status-connecting-1.svg

<svg xmlns="http://www.w3.org/2000/svg" xmlns:xlink="http://www.w3.org/1999/xlink" width="22px" height="22px" viewBox="0 0 22 22" version="1.1">
<g id="surface1">
<path style=" stroke:none;fill-rule:nonzero;fill:rgb(93.333334%,93.333334%,93.333334%);fill-opacity:1;" d="M 7.375 2.886719 C 5.21875 2.886719 3.484375 4.621094 3.484375 6.777344 C 3.484375 7.429688 3.644531 8.039062 3.925781 8.578125 C 3.640625 9.363281 3.484375 10.210938 3.484375 11.097656 C 3.484375 15.167969 6.761719 18.441406 10.832031 18.441406 C 11.148438 18.441406 11.460938 18.421875 11.769531 18.382812 C 12.445312 18.960938 13.324219 19.308594 14.289062 19.308594 C 16.441406 19.308594 18.175781 17.574219 18.175781 15.417969 C 18.175781 14.765625 18.019531 14.152344 17.738281 13.617188 C 18.023438 12.828125 18.175781 11.984375 18.175781 11.097656 C 18.175781 7.027344 14.902344 3.75 10.832031 3.75 C 10.511719 3.75 10.203125 3.773438 9.894531 3.808594 C 9.21875 3.234375 8.335938 2.886719 7.375 2.886719 Z M 11.027344 7.25 C 11.644531 7.25 12.273438 7.40625 12.847656 7.738281 C 14.320312 8.589844 14.976562 10.300781 14.535156 11.863281 C 14.179688 12.710938 12.605469 11.800781 12.847656 10.890625 C 12.847656 10.261719 12.523438 9.652344 11.9375 9.316406 C 11.351562 8.976562 10.660156 9 10.117188 9.3125 C 9.453125 9.980469 7.878906 9.070312 8.429688 8.339844 C 9.121094 7.632812 10.0625 7.246094 11.027344 7.25 Z M 7.816406 9.972656 C 8.394531 9.976562 9.15625 10.628906 8.980469 11.28125 C 8.980469 11.910156 9.304688 12.523438 9.890625 12.859375 C 10.476562 13.195312 11.167969 13.175781 11.710938 12.859375 C 12.046875 12.527344 12.605469 12.589844 13.011719 12.824219 C 13.421875 13.058594 13.675781 13.46875 13.398438 13.835938 C 12.265625 14.996094 10.457031 15.285156 8.980469 14.4375 C 7.507812 13.582031 6.855469 11.871094 7.292969 10.308594 C 7.394531 10.074219 7.589844 9.972656 7.816406 9.972656 Z M 7.816406 9.972656 "/>
</g>
</svg>

<svg xmlns="http://www.w3.org/2000/svg" width="22pt" height="22pt" viewBox="0 0 22 22"><path d="M7.375 2.887a3.881 3.881 0 0 0-3.89 3.89c0 .653.16 1.266.44 1.801a7.363 7.363 0 0 0-.44 2.52 7.329 7.329 0 0 0 7.347 7.343c.316 0 .629-.02.934-.058.68.578 1.558.926 2.523.926a3.88 3.88 0 0 0 3.887-3.891c0-.652-.156-1.266-.438-1.805a7.322 7.322 0 0 0 .438-2.515 7.329 7.329 0 0 0-7.344-7.348c-.316 0-.629.023-.937.059a3.883 3.883 0 0 0-2.52-.922zm3.652 4.363a3.63 3.63 0 0 1 1.82.488 3.632 3.632 0 0 1 1.688 4.125c-.355.848-1.93-.062-1.687-.972a1.8 1.8 0 0 0-.91-1.575 1.815 1.815 0 0 0-1.82-.004c-.665.668-2.24-.242-1.688-.972a3.633 3.633 0 0 1 2.597-1.09zm-3.21 2.723c.578.004 1.34.656 1.163 1.308 0 .63.325 1.239.91 1.578.587.34 1.278.317 1.82 0 .333-.332.895-.273 1.302-.035.41.235.664.645.386 1.008a3.626 3.626 0 0 1-4.418.602 3.63 3.63 0 0 1-1.687-4.125c.102-.239.297-.336.523-.336zm0 0" fill="#bdbdbd"/></svg>
